packages/devextreme-scss/images/icons/fluent/cursorprohibition.svg

<svg width="20" height="20" viewBox="0 0 20 20" fill="none" xmlns="http://www.w3.org/2000/svg">
<path d="M18 10C18 14.4183 14.4183 18 10 18C5.58172 18 2 14.4183 2 10C2 5.58172 5.58172 2 10 2C14.4183 2 18 5.58172 18 10ZM17 10C17 8.24696 16.3556 6.64442 15.2907 5.41636L5.41636 15.2907C6.64442 16.3556 8.24696 17 10 17C13.866 17 17 13.866 17 10ZM4.70925 14.5836L14.5836 4.70925C13.3556 3.6444 11.753 3 10 3C6.13401 3 3 6.13401 3 10C3 11.753 3.6444 13.3556 4.70925 14.5836Z" fill="black"/>
</svg>

<!-- Generated by IcoMoon.io -->
<svg version="1.1" xmlns="http://www.w3.org/2000/svg" width="20" height="20" viewBox="0 0 20 20">
<path d="M18 10c0 4.418-3.582 8-8 8s-8-3.582-8-8c0-4.418 3.582-8 8-8s8 3.582 8 8zM17 10c0-1.753-0.644-3.356-1.709-4.584l-9.874 9.874c1.228 1.065 2.831 1.709 4.584 1.709 3.866 0 7-3.134 7-7zM4.709 14.584l9.874-9.874c-1.228-1.065-2.831-1.709-4.584-1.709-3.866 0-7 3.134-7 7 0 1.753 0.644 3.356 1.709 4.584z"></path>
</svg>
